icons/op-date-alerts-24.svg

<svg width="24" height="24" viewBox="0 0 24 24" fill="none" xmlns="http://www.w3.org/2000/svg">
<path fill-rule="evenodd" clip-rule="evenodd" d="M13.9272 5.03835C15.3117 3.65388 17.5632 3.65388 18.9617 5.03835C20.3461 6.42281 20.3461 8.6883 18.9617 10.0728C17.5632 11.4572 15.3257 11.4572 13.9272 10.0728C12.5428 8.67431 12.5428 6.42281 13.9272 5.03835ZM16.8688 5.03835H16.1276C15.9178 5.03835 15.8899 5.16421 15.8899 5.23413V5.30405L16.0437 8.08697C16.0717 8.28275 16.1556 8.3247 16.3094 8.3247H16.701C16.8548 8.3247 16.9387 8.28275 16.9527 8.07298L17.1065 5.38796L17.1205 5.30405V5.23413C17.1205 5.16421 17.0925 5.03835 16.8688 5.03835ZM15.806 9.52737C15.806 9.90495 16.1136 10.2126 16.5052 10.2126C16.8828 10.2126 17.2044 9.90495 17.2044 9.52737C17.2044 9.1358 16.8968 8.82814 16.5052 8.82814C16.1136 8.82814 15.806 9.1358 15.806 9.52737Z" fill="black"/>
<path fill-rule="evenodd" clip-rule="evenodd" d="M12.8886 10.2222C12.3306 9.47941 12 8.5561 12 7.55556L8.74074 7.55556V5.77778H5.8963V7.55556H4V20H18.2222V11.6302C17.922 11.7614 17.6045 11.8603 17.2741 11.9227V19.1111H4.94815V10.2222H12.8886ZM6.84444 6.66667H7.79259V8.44444H6.84444V6.66667Z" fill="black"/>
<path d="M16.3259 11.9985C15.6446 11.9806 15.0014 11.8094 14.4296 11.5181V12.8889H16.3259V11.9985Z" fill="black"/>
<path d="M10.637 12.8889H8.74074V11.1111H10.637V12.8889Z" fill="black"/>
<path d="M13.4815 12.8889H11.5852V11.1111H13.4815V12.8889Z" fill="black"/>
<path d="M5.8963 15.5556V13.7778H7.79259V15.5556H5.8963Z" fill="black"/>
<path d="M10.637 15.5556H8.74074V13.7778H10.637V15.5556Z" fill="black"/>
<path d="M13.4815 15.5556H11.5852V13.7778H13.4815V15.5556Z" fill="black"/>
<path d="M14.4296 15.5556V13.7778H16.3259V15.5556H14.4296Z" fill="black"/>
<path d="M5.8963 18.2222V16.4444H7.79259V18.2222H5.8963Z" fill="black"/>
<path d="M10.637 18.2222H8.74074V16.4444H10.637V18.2222Z" fill="black"/>
<path d="M13.4815 18.2222H11.5852V16.4444H13.4815V18.2222Z" fill="black"/>
</svg>

<svg xmlns="http://www.w3.org/2000/svg" width="24" height="24" viewBox="0 0 24 24"><path d="M13.927 5.038a3.572 3.572 0 0 1 5.035 0 3.572 3.572 0 0 1 0 5.035 3.572 3.572 0 0 1-5.035 0 3.572 3.572 0 0 1 0-5.035Zm2.942 0h-.741c-.21 0-.238.126-.238.196v.07l.154 2.783c.028.196.112.238.265.238h.392c.154 0 .238-.042.252-.252l.154-2.685.014-.084v-.07c0-.07-.028-.196-.252-.196Zm-1.063 4.489a.69.69 0 0 0 .699.686.692.692 0 1 0 0-1.385.693.693 0 0 0-.699.699Z"/><path d="M12.889 10.222H4.948v8.889h12.326v-7.188c.33-.063.648-.162.948-.293V20H4V7.556h1.896V5.778h2.845v1.778H12c0 1 .331 1.923.889 2.666ZM6.844 6.667v1.777h.949V6.667Z"/><path d="M16.326 11.998a4.411 4.411 0 0 1-1.896-.48v1.371h1.896v-.891Zm-5.689.891H8.741v-1.778h1.896v1.778Zm2.845 0h-1.897v-1.778h1.897v1.778Zm-7.586 2.667v-1.778h1.897v1.778H5.896Zm4.741 0H8.741v-1.778h1.896v1.778Zm2.845 0h-1.897v-1.778h1.897v1.778Zm.948 0v-1.778h1.896v1.778H14.43Zm-8.534 2.666v-1.778h1.897v1.778H5.896Zm4.741 0H8.741v-1.778h1.896v1.778Zm2.845 0h-1.897v-1.778h1.897v1.778Z"/></svg>
